src/main/resources/icons/KubernetesIcons/icons/helmRequirementsLock.svg

<svg width="16" height="16" viewBox="0 0 16 16" fill="none" xmlns="http://www.w3.org/2000/svg">
<path fill-rule="evenodd" clip-rule="evenodd" d="M2 9.69643C2 9.3118 2.44772 9 3 9C3.55228 9 4 9.3118 4 9.69643V11.4286H2V9.69643ZM1 11.4286V9.71429C1 8.76751 1.89543 8 3 8C4.10457 8 5 8.76751 5 9.71429V11.4286H6V16H0V11.4286H1Z" fill="#F26522" fill-opacity="0.7"/>
<path fill-rule="evenodd" clip-rule="evenodd" d="M5.089 6.70623L3.95695 5.57418L2.53113 7H2.99999C3.63319 7 4.13808 7.09623 4.53905 7.25618L5.089 6.70623ZM6.77571 10.5H5.99999V9.5C5.99999 9.2871 5.97733 9.05153 5.91752 8.8126L9.71871 5.01142L10.9915 6.28421L6.77571 10.5ZM6.99999 13.0357V14.7731C7.66125 14.5568 8.28297 14.1859 8.8086 13.6603L10.4258 12.043L9.29376 10.911L7.67655 12.5282C7.47097 12.7338 7.24279 12.903 6.99999 13.0357ZM7.19138 2.33975L5.57417 3.95696L6.70622 5.08901L8.32343 3.4718C9.48455 2.31068 11.3671 2.31068 12.5282 3.4718C13.6893 4.63291 13.6893 6.51544 12.5282 7.67656L10.911 9.29377L12.043 10.4258L13.6602 8.80861C15.4466 7.02228 15.4466 4.12607 13.6602 2.33975C11.8739 0.553418 8.97771 0.553418 7.19138 2.33975Z" fill="#9AA7B0"/>
</svg>

<svg width="16" height="16" viewBox="0 0 16 16" fill="none" xmlns="http://www.w3.org/2000/svg"><rect id="frame" width="16" height="16" fill="none"/><path fill-rule="evenodd" clip-rule="evenodd" d="M2 9.696C2 9.312 2.448 9 3 9s1 .312 1 .696v1.733H2V9.696zM1 11.43V9.714C1 8.768 1.895 8 3 8s2 .768 2 1.714v1.715h1V16H0v-4.571h1z" fill="#F26522" fill-opacity=".7"/><path fill-rule="evenodd" clip-rule="evenodd" d="M5.089 6.706L3.957 5.574 2.531 7H3c.633 0 1.138.096 1.539.256l.55-.55zM6.776 10.5H6v-1c0-.213-.023-.448-.082-.687l3.8-3.802 1.274 1.273L6.776 10.5zM7 13.036v1.737a4.555 4.555 0 0 0 1.809-1.113l1.617-1.617-1.132-1.132-1.617 1.617a2.971 2.971 0 0 1-.677.508zM7.191 2.34L5.574 3.957l1.132 1.132 1.617-1.617a2.973 2.973 0 1 1 4.205 4.205l-1.617 1.617 1.132 1.132 1.617-1.617a4.574 4.574 0 1 0-6.469-6.47z" fill="#9AA7B0"/></svg>
